<?xml version="1.0" encoding="UTF-8"?>
<map version="1.10" tiledversion="1.11.0" orientation="orthogonal" renderorder="right-down" width="32" height="32" tilewidth="32" tileheight="32" infinite="0" nextlayerid="3" nextobjectid="65">
 <tileset firstgid="1" source="TopDownHouse_FloorsAndWalls.tsx"/>
 <layer id="1" name="Слой тайлов 1" width="32" height="32">
  <data encoding="csv">
29,29,29,29,29,29,29,29,29,29,29,29,29,29,29,29,29,29,29,29,29,29,29,29,29,29,29,29,29,29,29,29,
29,29,29,29,15,15,15,15,15,15,15,15,15,15,15,15,15,15,15,15,15,15,15,15,15,15,15,15,15,15,15,29,
29,29,29,29,15,29,29,29,29,29,29,29,29,29,29,29,29,29,29,29,29,29,29,29,29,29,29,15,29,29,15,29,
29,29,29,29,15,29,29,29,29,29,29,29,29,29,29,29,29,29,29,29,29,29,29,29,29,29,29,15,29,29,15,29,
29,29,29,29,15,29,29,15,15,15,15,29,29,29,29,29,29,29,29,29,29,29,29,29,29,29,29,15,29,29,15,29,
29,29,29,29,15,29,29,29,29,29,15,29,15,15,15,15,15,15,15,15,15,15,29,15,15,15,15,15,29,29,15,29,
29,29,29,29,15,29,15,15,15,15,15,15,15,29,29,29,29,29,29,15,29,15,29,15,29,29,29,29,29,29,15,29,
29,29,29,29,15,29,15,29,15,29,29,29,29,29,29,29,29,29,29,15,29,15,29,15,29,29,15,15,15,29,15,29,
29,29,29,29,15,29,15,29,15,29,15,15,15,15,15,15,15,15,15,15,29,15,29,15,29,29,15,29,15,29,15,29,
29,29,29,29,15,29,15,29,15,29,15,29,29,29,29,29,29,29,29,29,29,15,29,15,29,29,15,29,29,29,15,29,
29,29,29,29,15,29,15,29,15,29,15,29,29,29,29,29,29,29,29,29,29,15,29,15,29,29,15,29,29,29,15,29,
29,29,29,29,15,29,15,29,15,29,15,29,29,15,29,15,15,15,15,29,29,15,29,15,29,29,15,15,15,15,15,29,
29,29,29,29,15,29,15,29,15,29,15,29,29,15,29,15,29,29,15,29,29,15,29,15,29,29,15,29,29,29,15,29,
29,29,29,29,15,29,15,29,15,29,29,29,29,15,15,15,29,29,29,29,29,15,29,15,29,29,29,29,29,29,15,29,
29,29,29,29,29,29,15,29,15,29,29,29,29,29,29,15,15,15,15,15,15,15,29,15,29,29,15,15,15,15,15,29,
29,29,29,29,15,29,15,29,15,15,15,15,29,29,29,29,29,29,29,29,29,29,29,15,29,29,15,29,29,29,15,29,
29,29,29,29,15,29,15,29,29,29,29,29,29,15,15,15,15,15,15,15,15,15,15,15,29,15,15,29,29,29,15,29,
29,29,29,29,15,29,15,29,15,15,15,29,29,29,29,29,29,15,29,29,29,29,15,29,29,29,29,29,29,29,15,29,
29,29,29,29,15,29,15,29,29,29,15,29,29,29,29,29,29,29,29,29,29,29,15,29,29,15,15,15,15,15,15,29,
29,29,29,29,15,29,15,15,15,15,15,15,15,15,15,15,15,15,15,15,15,15,15,29,29,15,29,29,29,29,15,29,
29,29,29,29,15,29,29,29,15,29,29,29,29,29,29,29,29,29,29,29,29,29,29,29,29,15,29,15,15,15,15,29,
29,29,29,29,15,29,15,29,15,15,29,29,15,15,15,15,15,15,15,15,15,15,15,15,15,15,29,15,29,29,15,29,
29,29,29,29,15,29,15,29,29,29,29,29,29,29,29,29,29,29,29,29,29,29,29,29,29,29,29,29,29,29,15,29,
29,29,29,29,15,15,15,15,15,15,15,15,15,15,15,15,15,15,15,15,15,15,15,15,15,15,15,15,15,15,15,29,
29,29,29,29,29,29,29,29,29,29,29,29,29,29,29,29,29,29,29,29,29,29,29,29,29,29,29,29,29,29,29,29,
29,29,29,29,29,29,29,29,29,29,29,29,29,29,29,29,29,29,29,29,29,29,29,29,29,29,29,29,29,29,29,29,
29,29,29,29,29,29,29,29,29,29,29,29,29,29,29,29,29,29,29,29,29,29,29,29,29,29,29,29,29,29,29,29,
29,29,29,29,29,29,29,29,29,29,29,29,29,29,29,29,29,29,29,29,29,29,29,29,29,29,29,29,29,29,29,29,
29,29,29,29,29,29,29,29,29,29,29,29,29,29,29,29,29,29,29,29,29,29,29,29,29,29,29,29,29,29,29,29,
29,29,29,29,29,29,29,29,29,29,29,29,29,29,29,29,29,29,29,29,29,29,29,29,29,29,29,29,29,29,29,29,
29,29,29,29,29,29,29,29,29,29,29,29,29,29,29,29,29,29,29,29,29,29,29,29,29,29,29,29,29,29,29,29,
29,29,29,29,29,29,29,29,29,29,29,29,29,29,29,29,29,29,29,29,29,29,29,29,29,29,29,29,29,29,29,29
</data>
 </layer>
 <objectgroup id="2" name="Слой объектов 1">
  <object id="9" x="128" y="480" width="32" height="288"/>
  <object id="10" x="160" y="736" width="832" height="32"/>
  <object id="11" x="192" y="672" width="32" height="64"/>
  <object id="12" x="192" y="192" width="32" height="448"/>
  <object id="13" x="224" y="608" width="512" height="32"/>
  <object id="14" x="416" y="512" width="352" height="32"/>
  <object id="15" x="544" y="544" width="32" height="32"/>
  <object id="16" x="704" y="544" width="32" height="64"/>
  <object id="17" x="256" y="640" width="32" height="32"/>
  <object id="18" x="256" y="672" width="32" height="32"/>
  <object id="19" x="288" y="672" width="32" height="32"/>
  <object id="20" x="384" y="672" width="448"/>
  <object id="21" x="800" y="576" width="32" height="96"/>
  <object id="22" x="832" y="576" width="160" height="32"/>
  <object id="24" x="864" y="640" width="32" height="64"/>
  <object id="25" x="896" y="640" width="96" height="32"/>
  <object id="26" x="960" y="672" width="32" height="64"/>
  <object id="27" x="960" y="608" width="32" height="32"/>
  <object id="28" x="256" y="544" width="96" height="32"/>
  <object id="29" x="320" y="576" width="32" height="32"/>
  <object id="30" x="224" y="192" width="192" height="32"/>
  <object id="31" x="256" y="224" width="32" height="256"/>
  <object id="33" x="256" y="480" width="128" height="32"/>
  <object id="34" x="128" y="32" width="32" height="416"/>
  <object id="35" x="160" y="32" width="832" height="32"/>
  <object id="37" x="960" y="64" width="32" height="512"/>
  <object id="38" x="800" y="512" width="64" height="32"/>
  <object id="39" x="832" y="448" width="32" height="64"/>
  <object id="40" x="864" y="448" width="96" height="32"/>
  <object id="41" x="832" y="224" width="32" height="192"/>
  <object id="42" x="864" y="352" width="96" height="32"/>
  <object id="43" x="864" y="224" width="64" height="32"/>
  <object id="44" x="896" y="256" width="32" height="32"/>
  <object id="46" x="864" y="64" width="32" height="128"/>
  <object id="48" x="736" y="160" width="128" height="32"/>
  <object id="49" x="736" y="192" width="32" height="320"/>
  <object id="50" x="320" y="256" width="32" height="160"/>
  <object id="51" x="352" y="256" width="288" height="32"/>
  <object id="52" x="384" y="160" width="320" height="32"/>
  <object id="53" x="224" y="128" width="128" height="32"/>
  <object id="55" x="320" y="160" width="32" height="32"/>
  <object id="56" x="608" y="192" width="32" height="64"/>
  <object id="57" x="672" y="192" width="32" height="288"/>
  <object id="58" x="416" y="352" width="32" height="96"/>
  <object id="59" x="448" y="416" width="64" height="32"/>
  <object id="60" x="480" y="352" width="128" height="32"/>
  <object id="61" x="576" y="384" width="32" height="32"/>
  <object id="62" x="480" y="384" width="32" height="32"/>
  <object id="63" x="480" y="448" width="192" height="32"/>
  <object id="64" x="384" y="672" width="448" height="32"/>
 </objectgroup>
</map>
